common/src/main/resources/glyphs/plugins/resharper/ServicesAsp/AspCodeExpression.svg

<svg xmlns="http://www.w3.org/2000/svg" width="16" height="16" fill="#FFCA28" data-big="true" viewBox="0 0 24 24"><path d="M7 15h2c0 1.08 1.37 2 3 2s3-.92 3-2c0-1.1-1.04-1.5-3.24-2.03C9.64 12.44 7 11.78 7 9c0-1.79 1.47-3.31 3.5-3.82V3h3v2.18C15.53 5.69 17 7.21 17 9h-2c0-1.08-1.37-2-3-2s-3 .92-3 2c0 1.1 1.04 1.5 3.24 2.03C14.36 11.56 17 12.22 17 15c0 1.79-1.47 3.31-3.5 3.82V21h-3v-2.18C8.47 18.31 7 16.79 7 15"/></svg>

<!--
  - The MIT License (MIT)
  -
  - Copyright (c) 2015-2024 Elior "Mallowigi" Boukhobza
  -
  - Permission is hereby granted, free of charge, to any person obtaining a copy
  - of this software and associated documentation files (the "Software"), to deal
  - in the Software without restriction, including without limitation the rights
  - to use, copy, modify, merge, publish, distribute, sublicense, and/or sell
  - copies of the Software, and to permit persons to whom the Software is
  - furnished to do so, subject to the following conditions:
  -
  - The above copyright notice and this permission notice shall be included in all
  - copies or substantial portions of the Software.
  -
  - THE SOFTWARE IS PROVIDED "AS IS", WITHOUT WARRANTY OF ANY KIND, EXPRESS OR
  - IMPLIED, INCLUDING BUT NOT LIMITED TO THE WARRANTIES OF MERCHANTABILITY,
  - FITNESS FOR A PARTICULAR PURPOSE AND NONINFRINGEMENT. IN NO EVENT SHALL THE
  - AUTHORS OR COPYRIGHT HOLDERS BE LIABLE FOR ANY CLAIM, DAMAGES OR OTHER
  - LIABILITY, WHETHER IN AN ACTION OF CONTRACT, TORT OR OTHERWISE, ARISING FROM,
  - OUT OF OR IN CONNECTION WITH THE SOFTWARE OR THE USE OR OTHER DEALINGS IN THE
  - SOFTWARE.
  -->


<svg data-big="true" xmlns="http://www.w3.org/2000/svg" version="1.1" width="16px" height="16px" fill="#FFCA28"
     viewBox="0 0 24 24">
  <path
    d="M7,15H9C9,16.08 10.37,17 12,17C13.63,17 15,16.08 15,15C15,13.9 13.96,13.5 11.76,12.97C9.64,12.44 7,11.78 7,9C7,7.21 8.47,5.69 10.5,5.18V3H13.5V5.18C15.53,5.69 17,7.21 17,9H15C15,7.92 13.63,7 12,7C10.37,7 9,7.92 9,9C9,10.1 10.04,10.5 12.24,11.03C14.36,11.56 17,12.22 17,15C17,16.79 15.53,18.31 13.5,18.82V21H10.5V18.82C8.47,18.31 7,16.79 7,15Z"/>
</svg>
